X:28
T:Dancing Flowers
C:Sarah Gowan and Bill Quern
M:3/4
L:1/8
K:G
z4 D2 |"G"G3 F GA |G2 B2 d2 |"B7"f3 e fg |f2 e2 f2|
"C"g4 g2 |g2 f2 e2 |"Em"B3 A Bc |B2 A2 G2 |
"G"G3 F GA |G2 B2 d2 |"B7"f3 e fg |f2 e2 f2 |
"C"g4 gg |g2 f2 g2 |"A7"a6 |"D"f6 ||
"C"g4 ga |g2 f2 e2 |"Em"B3 A Bc |B2 A2 G2 |
"B7"f4 fg |f2 e2 f2 |"C"g4 g2 |"Em"B6 |
"B7"f4 fg |f2 e2 f2 |"C"g4 g2 |
"G"B4 B2 |"C"e d3 d2 |"D"c2 B2 F2 |"G"G6 |]
